X:1
T:Title
%%score 1 2 3
L:1/8
Q:1/4=95
M:4/4
K:G
V:1 treble nm="Church Organ, Church Organ"
V:2 treble nm="French Horn, French Horn"
V:3 bass nm="Tuba, Tuba"
V:1
 dded BBcB | GGAG E D3 | DDDF A d3 | DDDG B d3 | dded BBcB | GGAG E D3 | DDDF A d3 | %7
w: By~I.~H.~Meredity * * * * * * *|||||||
 cB- B/c/B A G3- | G d3 D D3- | D d3 D D3 | DGAB dedB | A G2 E- E/ z/ A3- | A d3 D D3- | %13
w: ||||||
 D d3 D D3 | DGAB dedB | d e2 d- d/ z/ G3 |] %16
w: |||
V:2
 [GB][GB][GB][GB] [DG][DG][EG][DG] | [B,D][CE][CE][CE] C[K:bass] B,3 | %2
w: The~ peo ple~ that~ in~ dark ness~ walked~|Have~ seen~ a~ won drous~ light,~|
 z [F,C][F,C][CD] [CD][K:treble] [DFA]3 | CB,B,[B,D] [DG] [DGB]3 | %4
w: light~ that~ beamed~ a far,~|The~ bright~ and~ mor ning~ star.~|
 [GB][GB][GB][GB] [DG][DG][EG][DG] | [B,D][CE][CE][CE] C[K:bass] B,3 | %6
w: And~ those~ that~ dwelt~ in~ death's~ dark~ vale,~|Have~ felt~ their~ joy~ in crease,~|
 z [E,C][F,C][CD] [CD][K:treble] [DFA]3 | [DA][DG]- [DG]/[EG]/[DG] [CDF] [B,D]3- | %8
w: con stant~ theme~ shall~ be~|"All~ hail~ * the~ Prince~ of~ Peace."~|
 [B,D] [DG]3 D[K:bass] [F,C]3- | [F,C][K:treble] [DG]3 D[K:bass] [F,C]3 | %10
w: * Won der ful,~|* Coun sel lor!~|
 [F,C][K:treble][B,D][B,D][DG] [DG][GB][GB][DG] | [CDF] [A,^C]2 [A,C]- [A,C]/ z/ [=CDF]3- | %12
w: The~ ev er last ing~ fa ther,~ and~|the~ Prince~ of~ * Peace;~|
 [CDF] [DG]3 D[K:bass] [F,C]3- | [F,C][K:treble] [DG]3 D[K:bass] [F,C]3 | %14
w: * Won der ful,~|* Coun sel lor!~|
 [F,C][K:treble][B,D][B,D][DG] [DG][GB][GB][DG] | [GB] [Fc]2 [Fc]- [Fc]/ z/ [B,D]3 |] %16
w: The~ ev er last ing~ fa ther,~ and~|the~ Prince~ of~ * Peace;~|
V:3
 z [G,,G,]2 [D,,D,]- [D,,D,]/ z/ [G,,G,]2 [D,,D,]- | %1
 [D,,D,] [C,,C,]2 [E,,E,]- [E,,E,]/ z/ [G,,G,] [D,,D,][B,,,B,,] | %2
 z [A,,,A,,]2 [D,,D,]- [D,,D,]/ z/ [D,,D,] [E,,E,][F,,F,] | %3
 z [G,,G,]2 [G,,G,]- [G,,G,]/ z/ [G,,G,] [A,,A,][B,,B,] | %4
 z [G,,G,]2 [D,,D,]- [D,,D,]/ z/ [G,,G,]2 [D,,D,]- | %5
 [D,,D,] [C,,C,]2 [E,,E,]- [E,,E,]/ z/ [G,,G,] [D,,D,][B,,,B,,] | %6
 z [A,,,A,,]2 [D,,D,]- [D,,D,]/ z/ [D,,D,] [E,,E,][F,,F,] | %7
 z [D,,D,]2 [D,,D,]- [D,,D,]/ z/ [G,,D,G,]3- | [G,,D,G,] [G,,D,B,]2 D,- D, A,,2 D,,- | %9
 D,, [G,,D,B,]2 D,- D, A,,2 D,,- | D,, [G,,G,]2 [D,,D,]- [D,,D,]/ z/ [G,,G,]2 [D,,D,]- | %11
 [D,,D,] [A,,,A,,]2 [A,,,A,,]- [A,,,A,,]/ z/ [D,,D,]3- | [D,,D,] [G,,D,B,]2 D,- D, A,,2 D,,- | %13
 D,, [G,,D,B,]2 D,- D, A,,2 D,,- | D,, [G,,G,]2 [D,,D,]- [D,,D,]/ z/ [G,,G,]2 [D,,D,]- | %15
 [D,,D,] [A,,A,]2 [D,,D,]- [D,,D,]/ z/ [G,,D,G,]3 |] %16

